X: 36279
T: Seamus Cooley's
R: jig
M: 6/8
K: Dmajor
|:e|fef d2 B|ABA ABd|efe edB|e3 efg|
fef d2 B|ABA ABd|efe edB|d3 d2:|
|:e|fef a2 a|fef a2 f|efe edB|e3 efg|
[1fef a2 a|fef a2 f|efe edB|d3 d2:|
[2fef d2 B|A3 ABd|efe edB|d3 d2||

